flaticon/stationery/paint-brush-1.svg

<svg xmlns="http://www.w3.org/2000/svg" width="32" height="32" viewBox="0 0 24 24">
    <path d="M 23.222656 0.789062 C 22.71875 0.289062 21.1875 -0.703125 19.457031 0.789062 C 19.457031 0.789062 14.921875 5.324219 14.910156 5.339844 L 11.261719 9.910156 L 10.527344 9.175781 C 9.015625 7.703125 6.894531 8.101562 5.910156 9.175781 L 3.691406 11.394531 C 3.492188 11.59375 3.492188 11.914062 3.691406 12.117188 L 3.957031 12.378906 L 0.148438 16.183594 C -0.0507812 16.382812 -0.0507812 16.707031 0.148438 16.90625 L 7.097656 23.851562 C 7.335938 24.101562 7.695312 23.988281 7.820312 23.851562 L 11.625 20.046875 L 11.890625 20.3125 C 12.082031 20.523438 12.445312 20.5 12.613281 20.3125 L 14.832031 18.09375 C 15.90625 17.09375 16.277344 14.839844 14.832031 13.476562 L 14.097656 12.742188 L 18.667969 9.097656 C 18.683594 9.085938 23.222656 4.550781 23.222656 4.550781 C 24.257812 3.515625 24.257812 1.828125 23.222656 0.789062 Z M 7.429688 15.851562 L 3.984375 19.296875 L 2.96875 18.28125 L 6.414062 14.839844 Z M 8.152344 16.574219 L 9.164062 17.589844 L 5.722656 21.03125 L 4.707031 20.015625 Z M 4.679688 13.101562 L 5.691406 14.117188 L 2.246094 17.558594 L 1.234375 16.546875 Z M 7.457031 22.765625 L 6.441406 21.753906 L 9.886719 18.308594 L 10.902344 19.324219 Z M 14.109375 17.371094 L 12.25 19.230469 L 4.773438 11.753906 L 6.628906 9.898438 C 7.164062 9.289062 8.625 8.777344 9.808594 9.898438 L 14.109375 14.199219 C 15.289062 15.398438 14.632812 16.917969 14.109375 17.371094 Z M 22.5 3.828125 L 18.007812 8.316406 L 13.371094 12.015625 L 12.074219 10.71875 L 11.988281 10.636719 L 15.691406 6 L 20.179688 1.511719 C 20.800781 0.890625 21.878906 0.890625 22.5 1.511719 C 23.140625 2.152344 23.140625 3.191406 22.5 3.828125 Z M 22.5 3.828125"/>
</svg>

<svg xmlns="http://www.w3.org/2000/svg" width="32" height="32" viewBox="0 0 24 24">
    <path d="M23.223.79c-.504-.5-2.035-1.493-3.766 0 0 0-4.535 4.534-4.547 4.55l-3.648 4.57-.735-.734c-1.511-1.473-3.632-1.074-4.617 0l-2.219 2.219c-.199.199-.199.52 0 .722l.266.262-3.809 3.805c-.199.199-.199.523 0 .722l6.95 6.946c.238.25.597.136.722 0l3.805-3.805.266.265c.191.211.554.188.722 0l2.219-2.218c1.074-1 1.445-3.254 0-4.617l-.734-.735 4.57-3.644c.016-.012 4.555-4.547 4.555-4.547a2.667 2.667 0 0 0 0-3.762zM7.43 15.851l-3.446 3.445L2.97 18.28l3.445-3.441zm.722.722l1.012 1.016-3.441 3.441-1.016-1.015zM4.68 13.102l1.011 1.015-3.445 3.442-1.012-1.012zm2.777 9.664l-1.016-1.012 3.446-3.445 1.015 1.015zm6.652-5.395l-1.859 1.86-7.477-7.477L6.63 9.898c.535-.609 1.996-1.12 3.18 0l4.3 4.301c1.18 1.2.524 2.719 0 3.172zM22.5 3.828l-4.492 4.488-4.637 3.7-1.297-1.297-.086-.082L15.691 6l4.489-4.488c.62-.621 1.699-.621 2.32 0 .64.64.64 1.68 0 2.316zm0 0"/>
</svg>
